X: 1
T: the Reel Derek (tune 2)
C: Derek Lane-Smith
R: reel
Z: John Chambers <jc:trillian.mit.edu>
M: C|
L: 1/8
K: D
|: A2 \
| "D"d2fd Adfd | "A7"g2e2 c2A2 | c2ec Acec | "D"f2d2 A2A2 | "D"d2fd Adfd | "A7"g2e2 c3B  |
| cdec A2e2 | "D"d4 "fine"d2 :| [K:G] |: gf | "G"g2d2 B2G2 | "Am"e2c2 A3G | "D7"F2A2 D2EF |1 "G"GABc d2gf :|2 "G"G4 "d.C."G2 |]
